X:1
T:A Shropshire Lad
T:Think no more, Lad, laugh, be jolly
T:A Shropshire Lad
T:8. Think no more, Lad, laugh, be jolly
T:Arthur Somervell
T:A. E. Housman
T:Creative Commons copyright waiver (CC0 1.0 Universal)
T:Creative Commons copyright waiver (CC0 1.0 Universal)
T:Creative Commons copyright waiver (CC0 1.0 Universal)
T:Creative Commons copyright waiver (CC0 1.0 Universal)
C:Arthur Somervell
Z:A. E. Housman
Z:Creative Commons copyright waiver (CC0 1.0 Universal)
%%score 1 { ( 2 5 ) | ( 3 4 ) }
L:1/8
Q:1/4=120
M:3/4
K:G
V:1 treble nm="Voice"
V:2 treble nm="Piano"
V:5 treble 
V:3 bass 
V:4 bass 
V:1
"^Allegro" z6 | z6 | z6 |!ff! G (B/c/) d G !>!e2- | e d c B A G | F G A3 A | D4 z2 | z6 | %8
w: |||Think no * more, lad; laugh,|_ be jol- ly; Why should|men make haste to|die?||
!f! G3/2 F/ E A A ^G | (A>B) c2 A A | e3 d c B | (c>B) A2 A G | (FG/A/ G) B A F | %13
w: Emp- ty heads and tongues a-|talk- * ing Make the|rough road eas- y|walk- * ing, And the|fea- * * * ther pate of|
 (G>A) B2 (c/B/) (c/A/) | d4 D2 |"^Surely a mistake!\ncf bar 45\n" G,6 | z6 | z6 | %18
w: fol- * ly Bears * the *|fall- ing|sky.|||
!mf![Q:1/4=116] B3/2 c/ B G A c | B2 e2 F (G/A/) | (B>c B3/2) c/ B3/2 G/ | E4 z2 | %22
w: Oh, ’tis jest- ing, danc- ing,|drink- ing Spins the *|hea- * * vy world a-|round.|
 A3/2 _B/ A =F G B | A2 d2"^add comma, \nas leider.net\nV\nV\nV\nV\n" E (=F/G/) | %24
w: If young hearts were not so|cle- ver, Oh, they *|
 A3/2 _B/ (A>BA3/2) =F/ |[Q:1/4=114]!<(! (D4 d2)!<)! |!ff![Q:1/4=110] d"^molto rit." c _B d ^c d | %27
w: would be young _ _ for|e- ver;|Think no more: ’tis on- ly|
 e d[Q:1/4=100] (=c_B) (A=F) |[Q:1/4=90] G4 A2 | D6[Q:1/4=120] | z6 | z6 |!ff! D (B/c/) d G e2- | %33
w: think- ing Lays * lads *|un- der-|\- ground.|||Think no * more, lad; laugh,|
 e d c B A G | F G A3 A | D6 | z6 |!f! G3/2 F/ E A A ^G | (A>B) c2 A A | e3 d c B | (c>B) A2 A G | %41
w: _ be jol- ly; Why should|men make haste to|die?||Emp- ty heads and tongues a-|talk- * ing Make the|rough road eas- y|walk- * ing, And the|
!<(! (FG/A/ G) B A F | (G>A) B2 (c/B/) (c/A/)!<)! |!ff! d4 D2 | %44
w: fea- * * * ther pate of|fol- * ly Bears * the *|fall- ing|
"^The low G seems hard for the singer\nand out of place in the melody!\nIf I were editing the song I would probably\nrelegate the low G to a quizzical footnote.\n" [G,G]6 | %45
w: sky.|
 z6 | z6 | z6 |] %48
w: |||
V:2
!f! [B,DG]3/2(B/4c/4 d).G!<(! [ce]>[df] | [eg][Be^g][cea][Beb]!<)! c'/b/c'/a/ | %2
 d3/2!f!B,/4C/4 !trill(!TD4{^CD} |!ff! G,([GB]/[Ac]/ [Bd]).G [ce]3/2(C/4D/4 | %4
 E).[^G,B,].[A,C].[B,D].[CE].[^CE] | [DF] z [A,DA]3/2(F,/4G,/4 A,).[G,A,^C] | %6
 [F,D]3/2F/4G/4 A3/2[I:staff +1]F,/4G,/4 !trill(!TA,2{^G,A,} | %7
 D,3/2(F,/4A,/4[I:staff -1] D3/2)(F/4G/4 A)!f![A,DF] | [G,DG] z [G,CE] z [A,A][^G,^G] | %9
 [A,CEA]3/2(A/4B/4 c2) ([A,^DA]2 | [^G,E^G]3/2)E/4F/4 G[EG][FA][GB] | ([Ac]>[Bd] [ce]2) [A,EA] z | %12
 [F,DF] z [G,DG] z AF | [G,G]>[A,A] [B,B]2 [CGAc]2 | !>!D3/2G/4B/4 d2 !trill(!T[cf]2{ef | %15
 [Bg]!<(! (g/4a/4b/4c'/4!<)!!ff! d')[cdf] .[Bdg].[AB^d] | %16
 [Ge]3/2!f!(G/4A/4 B)[A,B,^D] [G,B,E][I:staff +1][E,G,^A,] | %17
 [E,G,B,]3/2[I:staff -1]E/4G/4 B z!mf! [F,A,B,^D] z |!mf! ([gb]>[ac'][gb]).[eg].[fa].[ac'] | %19
 ([gb]>[ac'][gb])[eg] !arpeggio![Acef]2 | ([Ge]>[Ac][GB])e (5:4:5^d/e/d/^c/d/ | %21
 ([Ge]>[A=c][GB])e .[GB].^c | ([=Fd]>[g_b] [=fa][df])[eg][gb] | %23
 ([=fa]>[g_b][fa])[df] !arpeggio![G_Bde]2 | ([=Fd]>[G_B][FA]d) (5:4:5^c/d/c/=B/c/ | %25
!<(! ([=Fd]>[G_B][FA])d!<)! ([EG][FA]) |!ff! .[d_bd']2 !>![G_Bd]2"_colla voce." z2 | %27
 [dg_bd']2 [G_Be]2 [=FAd]2 | z2[I:staff +1] [D,G,D]2 [E,G,^C]2 | %29
"^a tempo" D,3/2!ff!!<(![I:staff -1](^F/4G/4!<)! A).E [EFc]2- | %30
!>(! [EFc].[DFB].[CEA].[B,DG].[A,CF].[G,B,E] | [F,A,D]>E[G,D]>E[F,CD]>E!>)! | %32
!f! [G,B,D]([GB]/[Ac]/ [Bd])G [ce]3/2(C/4D/4 | E).[^G,B,].[A,C].[B,D].[CE].[^CE] | %34
 [DF]2 [A,DA]3/2(F,/4G,/4 A,)[G,A,^C] | %35
 [F,D]3/2F/4G/4 A3/2[I:staff +1]F,/4G,/4 !trill(!TA,2{^G,A,} | %36
 D,3/2(F,/4A,/4[I:staff -1] D3/2)(F/4G/4 A)[A,DF] |!<(! [G,DG] z [G,CE] z [A,A][^G,^G]!<)! | %38
!ff! [A,CEA]3/2!f!(A/4B/4 c2) ([A,^DA]2 |!<(! [^G,E^G]3/2)(E/4F/4 G).[EG].[FA].[GB]!<)! | %40
!ff!!>(! ([Ac]>[Bd] [ce]2)!>)!!mf! [A,EA] z |!<(! [F,DF] z [G,DG] z AF | %42
 [G,G]>[A,A] [B,B]2 [CGAc]2!<)! |!ff! D3/2!f!G/4B/4 d2 !trill(!T[cf]2{ef | %44
 [Bg]!<(! (g/4a/4b/4c'/4!<)!!ff!.d') .[cdf].[Bdg].[AB^d] | %45
 [GBe]3/2!f!(G/4A/4 B).[A,^D] .[G,E].[G,^A,^C] | %46
!<(! [G,B,D]3/2B/4c/4 d3/2[K:bass]B,,/4C,/4!<)! !trill(!TD,2{^C,D,} | %47
!ff! .G,, z[K:treble] [Gdg]2 z2 |] %48
V:3
 [G,,,G,,]3/2(B,/4C/4 D).G,[K:treble] E>[DF] | [CEG][DE^G][CEA][B,EG] A=G | %2
 [DGB]3/2[K:bass]B,,/4C,/4 !trill(!TD,4{^C,D,} | %3
 G,,([G,B,]/[A,C]/ [B,D])"^add staccato\nV\n(   )\n".G, !>![CE]3/2(C,/4D,/4 | %4
 E,).[^G,,B,,].[A,,C,].[B,,D,].[C,E,].[^C,E,] | [D,F,] z F,3/2(F,,/4G,,/4 A,,).A,,, | %6
 D,,3/2F,/4G,/4 A,3/2F,,/4G,,/4 !trill(!TA,,2{^G,,A,,} | D,,3/2(F,,/4A,,/4 D,3/2)(F,/4G,/4 A,)C, | %8
 [B,,,B,,] z [C,,C,] z [B,,,B,,]2 | [A,,,A,,]3/2(A,/4B,/4 C2) ([=F,,=F,]2 | %10
 [E,,E,]3/2)E,/4F,/4 ^G,[E,G,][F,A,][G,B,] | ([A,C]>[B,D] [CE]2) [C,,C,] z | %12
 [D,,D,] z [E,,E,] z [F,,F,][D,,D,] | [E,,E,]>[F,,F,] [G,,G,]2 [E,,E,]2 | %14
D,,} D,3/2G,/4B,/4 D2 ([D,A,D]2 | [G,D])[K:treble] (G/4A/4B/4c/4 d)[DA] [G,G][B,F] | %16
[K:bass] [E,E]3/2(G,/4A,/4 B,)B,, [E,,E,][C,,C,] | [B,,,B,,]3/2E,/4G,/4 B, z [B,,,B,,] z | %18
!ped! [E,,B,,]2 [G,B,E]2!ped-up! [A,CF]2 |!ped! [E,,B,,]2 [G,B,E]2!ped-up! !arpeggio![A,CEF]2 | %20
!ped! [B,,B,]2 [B,E]2!ped-up! [B,F]2 |!ped! [E,,B,,]2 [G,B,E]2!ped-up! A,2 | %22
!ped! [D,,A,,]2 [=F,A,D]2!ped-up! [G,_B,E]2 | %23
!ped! [D,,A,,]2 [=F,A,D]2!ped-up! !arpeggio![G,_B,DE]2 |!ped! [A,,A,]2 [A,D]2!ped-up! [A,E]2 | %25
!ped! [D,,A,,]2 [=F,A,D]2!ped-up! ([E,G,][F,A,]) | [G,,D,]2 [G,_B,D]2 z2 | %27
 [E,,E,]2 [E,_B,E]2 [=F,A,D]2 | z2 [_B,,,_B,,]2 [A,,,A,,]2 | %29
 [D,,,D,,]3/2(^F,/4G,/4 A,).D, [E,F,C]2 | [D,,D,]4 [D,,,D,,]2 | %31
 !>![C,,C,]2 !>![B,,,B,,]2 !>![A,,,A,,]2 | [G,,,G,,]([G,B,]/[A,C]/ [B,D])G, [CE]3/2(C,/4D,/4 | %33
 E,).[^G,,B,,].[A,,C,].[B,,D,].[C,E,].[^C,E,] | [D,F,]2 [F,,D,]3/2(F,,/4G,,/4 A,,)A,,, | %35
 D,,3/2F,/4G,/4 A,3/2F,,/4G,,/4 !trill(!TA,,2{^G,,A,,} | D,,3/2(F,,/4A,,/4 D,3/2)(F,/4G,/4 A,)C, | %37
 [B,,,B,,] z [C,,C,] z ([B,,,B,,]2 | [A,,,A,,]3/2)(A,/4B,/4 C2) ([=F,,=F,]2 | %39
 [E,,E,]3/2)(E,/4F,/4 ^G,).[E,G,].[F,A,].[G,B,] | ([A,C]>[B,D] [CE]2) [C,,C,] z | %41
 [D,,D,] z [E,,E,] z [F,,F,][D,,D,] | [E,,E,]>[F,,F,] [G,,G,]2 [E,,E,]2 | %43
!ped!D,,} !>!D,3/2G,/4B,/4!ped-up! D2 [D,A,D]2 | %44
 [G,D][K:treble] (G/4A/4B/4c/4.d) .[DA].[G,G].[B,F] | %45
[K:bass] E,3/2(G,/4A,/4 B,).[B,,F,] .[E,,E,].[_E,,_E,] | %46
 [D,,D,]3/2B,/4C/4 D3/2B,,,/4C,,/4 !trill(!TD,,2{^C,,D,,} | .G,,, z [G,,D,B,]2 z2 |] %48
V:4
 x4[K:treble] C2- | x4 [A,E]2 | x3/2[K:bass] x9/2 | x6 | x6 | x6 | x6 | x6 | x6 | x6 | x6 | x6 | %12
 x6 | x6 | x6 | x[K:treble] x5 |[K:bass] x6 | x6 | x6 | x6 | x6 | x6 | x6 | x6 | x6 | x6 | x6 | %27
 x6 | x6 | x6 | x6 | x6 | x6 | x6 | x6 | x6 | x6 | x6 | x6 | x6 | x6 | x6 | x6 | x6 | %44
 x[K:treble] x5 |[K:bass] x6 | x6 | x6 |] %48
V:5
 x6 | x4 c2 | x6 | x6 | x6 | x6 | x6 | x6 | x4 [DE]2 | x6 | x6 | x6 | x4 [A,D]2 | D6 | x6 | x6 | %16
 x6 | x6 | x6 | x6 | x4 A2 | x6 | x6 | x6 | x4 G2 | x6 | x6 | x6 | x6 | x6 | x6 | x6 | x6 | x6 | %34
 x6 | x6 | x6 | x4 [DE]2 | x6 | x6 | x6 | x4 [A,D]2 | D6 | x6 | x6 | x6 | x7/2[K:bass] x5/2 | %47
 x2[K:treble] x4 |] %48

